X:1
T:Title
%%score 1 2 3
L:1/8
M:3/2
K:C
V:1 treble nm="Part_1"
V:2 treble-8 nm="Part_2"
V:3 treble-8 nm="Part_3"
V:1
 G12- | G8 A4 | B4 c8 | d6 c2 d2 B2 | c4 e8 | d8 c4 | B4 A4 B2 c2 | d4 c4 d4 | B4 ^c8- | c12 | %10
 z4 d4 B4 | G4 c8 | _B8 A4 | G4 F8 | E4 z2 D2 E2 F2 | G2 A2 (3_B2 A2 B2 c2 B2 | %16
 G2 A2 (3:2:6G2 F2 G2 F2 G2 E2 | G12- | G12 | _B12- | B4 c8 | d4 d4 d4 | c4 _B8 | A8 z4 | _B8 A4 | %25
 G4 c8 | _B4 A8 | G8 ^F4 | G8 A4 | _B8 A4- | A4 G8 | ^F12 | z4 G8 | D12 | _E8 E4 | _E8 E4 | D12 | %37
 d8 c4 | _B4 A8 | G12 | z4 z4 A4 | B4 c8 | d8 A4 | c4 B6 A2 | A4 z2 G2 A2 B2 | c2 d2 c2 B2 c2 A2 | %46
 c4 A2 B4 c2 | A4 G2 G2 A2 F2 | E4 G2 F4 E2 | D4 z2 A2 G2 F2 | !fermata!A12- | A8 z4 | %52
[M:3/2] d8 c4 | f4 _e4 d4 | !fermata!^c12- | c8 z4 | d8 c4 | A4 _B8 | A4 G4 c4 | !fermata!B12- | %60
 B8 z4 | c4 c4 _B4 | A4 G8 | A8 F4 | !fermata!E12- | E8 z4 |[M:3/2] F8 G4 | A4 A4 G4 | c4 _B8 | %69
 A12 | z4 G8 | A8 B4- | B4 c8 | d8 B4 | G12 | z4 c8 | B8 A4 | E12 | z4 G8 | F8 E4 | D8 z4 | %81
 A4 B4 c4 | d4 B8 | c4 A8 | B4 G8 | A4 F8 | E4 G2 ^F2 F2 E2 | G6 A2 B4- | B2 A2 c6 B2 | d6 c2 B4 | %90
 A4 z2 G2 A2 B2 | A2 G2 F2 E2 F2 G2 | A4 E4 z2 A2 | c2 d2 _B2 A2 c2 B2 | G2 A2 _B2 c2 d4 | %95
 _B2 c4 A2 G4 | F2 A4 F2 G2 E2 | D4 z2 G2 A2 _B2 | c2 _B2 A2 G2 A2 F2 | !fermata!E12- | E8 z4 | %101
[M:3/2] F8 G4 | A8 d4 | c8 A4 | _B6 c4 A2 | G4 z4 ^F4 | G6 D2 E2 F2 | G4 A4 _B4 | A6 G4 F2 | %109
 A4 z4 z4 | D6 E2 F2 G2 | A4 z2 c4 B2 | A4 G4 ^F4 | z4 c4 d4 | z2 e2 ^c8 | d8 B4 | c4 A4 _B4- | %117
 B2 A4 F2 G2 E2 | D2 E2 G2 ^F2 F2 E2 | G8 z4 | F4 F4 G4 | A4 G8 | F8 E4 | D4 C8 | D8 z4 | F8 F4 | %126
 E4 A4 G4 | D6 F4 G2 | A4 d2 ^c2 d2 _B2 | c12 | z2 d4 B4 c2- | c2 A4 G4 A2- | A2 _B4 z2 A2 A2 | %133
 G2 A2 F2 E4 F2 | G4 A2 _B4 G2 | A4 c2 _B4 A2 | c6 _B2 A2 G2 | F4 E4 D4 | z2 c2 B2 A2 c2 d2 | %139
 c2 A2 c2 B2 G2 A2 | !fermata!B12- | B8 z4 |[M:3/2] c12- | c8 B4 | A4 G4 A2 B2 | c4 B4 c2 d2 | %146
 e4 d6 c2 | B2 A2 B2 G2 A2 B2 | c2 A2 z2 c2 B2 A2 | c6 B2 A4- | A2 G2 A2 F2 E4- | E2 G2 F2 D2 D4 | %152
 C4 z2 F2 E2 D2 | F2 G2 A2 G2 A2 B2 | c2 d2 c2 A2 c2 _B2 | G4 ^F8 | G12 |] %157
V:2
[K:F] G12- | G8 d4 | d4 _e8 | d12 | A12 | f8 e4 | d4 c8 | =B4 c4 G4 | z4 A8- | A12 | G12 | c12 | %12
 g8 f4 | e4 d8 | A12 | G8 A4 | c4 B4 A4 | G12- | G12 | d12- | d4 _e8 | d8 d4 | e4 g8 | f8 f4 | %24
 g12 | z4 c8 | G8 B4- | B4 A8 | G8 ^F4 | G8 A4 | B8 c4 | d12- | d4 G8 | =B12 | c12- | c12 | G12 | %37
 z4 z4 c4 | G4 d8 | G12 | g8 f4 | d4 _e8 | d8 d4 | A4 G4 d4 | f4 e4 d4 | c4 d8 | c12- | c8 c4 | %48
 c4 =B4 c4 | d4 c4 B4 | !fermata!A12- | A8 z4 |[M:3/2] G8 c4 | d4 c4 B4 | !fermata!A12- | A8 z4 | %56
 B8 A4 | A4 G8 | c4 e4 f4 | !fermata!g12- | g8 z4 | c8 G4 | c4 B8 | A8 d4 | !fermata!^c12- | %65
 c8 z4 |[M:3/2] d8 B4 | A8 B4 | A4 G8 | d12- | d4 e8 | d4 f8 | e12 | z4 d8 | g8 e4 | c12 | z4 d8 | %77
 c8 A4 | G12 | z4 A8 | =B8 c4 | d8 c4 | G8 g4 | e4 z4 f4 | d4 z4 e4 | c4 z4 d4 | A8 A4 | G4 z4 G4 | %88
 d4 e8 | d8 g4 | f4 e4 d4 | c8 B4 | (A12 | F12) | G12 | c8 B4 | A4 d4 c4 | G8 G4 | A8 d4 | %99
 !fermata!^c12- | c8 z4 |[M:3/2] z12 | d8 B4 | A12 | G4 F8 | G8 d4 | c4 B4 A4 | G4 z4 G4 | %108
 F4 c4 B4 | A12 | z12 | d6 e2 f2 g2 | d4 _e4 d4 | c8 B4 | A8 z4 | G12 | F8 G4 | d8 c4 | B4 A8 | %119
 G12 | d8 e4 | f4 e8 | d8 g4 | f4 e8 | d12- | d12 | A8 c4 | B12 | A4 B2 A2 B2 G2 | A12 | G4 g4 e4 | %131
 f4 d4 e4 | c2 B4 c2 c4 | B2 A4 A2 A4 | B2 c4 d2 e4 | d2 f4 d2 d4 | c12 | d4 c4 G4 | A4 G4 F4 | %139
 c8 c4 | !fermata!G12- | G12 |[M:3/2] F12- | F12 | c12- | c4 G8 | c4 B4 G4 | d12 | c8 c4 | F12- | %150
 F8 c4 | c4 d4 =B4 | c4 A4 G4 | F8 c4 | c8 c4 | B4 A8 | G12 |] %157
V:3
[K:F] d12- | d8 A4 | G4 c8 | G12 | c12 | B8 c4 | G4 z4 g4 | d4 e2 f2 g4 | g4 e8- | e8 ^f4 | g12 | %11
 z4 z4 g4 | G8 d4 | G4 B8 | c8 c4 | d8 c4 | e4 d4 c4 | d12- | d4 B8 | G12 | z4 z4 c4 | G8 B4 | %22
 A4 G8 | d12 | G12- | G4 A8 | B4 _e6 d2 | d4 c6 =B2 | d12 | z4 d8- | d8 c4 | =B12- | B4 d8 | %33
 G8 G4 | g12- | g12 | z4 g8 | d8 _e4- | e4 f8 | _e4 d8 | G8 d4 | d4 c8 | F12 | z4 z4 G4 | %44
 F4 c4 z4 | e4 f8 | g12 | e8 z4 | g4 d4 A4 | =B4 c4 d4 | !fermata!e12- | e8 z4 |[M:3/2] g8 e4 | %53
 f4 g8 | !fermata!a12- | a8 z4 | f8 c4 | c4 d8 | c8 A4 | !fermata!G12- | G8 z4 | F8 G4 | A4 d8 | %63
 c8 d4 | !fermata!A12- | A8 z4 |[M:3/2] B8 d4 | c8 d4 | e4 g8 | f8 f4 | d4 c8 | F12 | z4 A8 | %73
 B8 G4 | G8 c4- | c4 A8 | G12 | z4 z4 c4 | d8 B4- | B4 c8 | G12 | z4 z4 g4 | g8 e4 | c8 d4 | %84
 G8 c4 | F4 B8 | c8 c4 | d12 | z12 | G8 G4 | d4 c4 f4 | e8 d4 | e4 z4 e4 | f8 f4 | d12 | A8 d4 | %96
 c4 B4 z4 | B4 d8 | c4 e4 f4 | !fermata!g12- | g8 z4 |[M:3/2] f8 e4 | f8 d4 | e8 ^f4 | g4 z4 c4 | %105
 =B12 | _e4 d4 c4 | d12 | f6 e4 d2 | e12 | ^f6 g2 f2 e2 | d4 z4 z4 | f4 c4 z4 | g8 d4 | c4 e8 | %115
 z2 g2 g2 d2 e2 d2 | f8 d4 | f8 e4 | d4 c8 | d8 d4 | B8 G4 | F4 c8 | z4 d4 c4 | F4 A8 | B12- | %125
 B12 | c4 e8 | f8 d4 | c4 z4 d4 | a4 e4 f4 | g4 G4 z2 A2 | F4 z2 B4 A2- | A2 G4 A2 F4 | F4 c8 | %134
 z2 A2 G4 c4 | F8 G4 | g4 e8 | z2 d2 g2 f2 g4 | f2 e4 d2 f4 | e8 c4 | !fermata!d12- | d8 z4 | %142
[M:3/2] A12- | A12 | e12- | e4 d8 | A4 d8 | G12 | z12 | c12- | c8 A4 | A4 =B8 | A4 c4 =B4 | c8 c4 | %154
 F8 A4 | d4 ^c8 | d12 |] %157

